ui/StatusQ/src/assets/img/icons/pin.svg

<svg fill="none" height="24" viewBox="0 0 24 24" width="24" xmlns="http://www.w3.org/2000/svg"><g fill="#000"><path d="m14.8956 7.28455c0-.82843-.6482-1.67563-1.4478-1.89228-.7996-.21664-1.4478.2793-1.4478 1.10773s.6482 1.67563 1.4478 1.89227c.7996.21665 1.4478-.2793 1.4478-1.10772z"/><path clip-rule="evenodd" d="m12 2c-3.31371 0-6 2.68629-6 6 0 2.9077 2.06835 5.3323 4.814 5.8828.2473.0496.436.2601.436.5123v6.6049c0 .4142.3358.75.75.75s.75-.3358.75-.75v-6.6049c0-.2522.1887-.4627.436-.5123 2.7457-.5505 4.814-2.9751 4.814-5.8828 0-3.31371-2.6863-6-6-6zm-4.5 6c0 2.4853 2.01472 4.5 4.5 4.5 2.4853 0 4.5-2.0147 4.5-4.5 0-2.48528-2.0147-4.5-4.5-4.5-2.48528 0-4.5 2.01472-4.5 4.5z" fill-rule="evenodd"/></g></svg>

<svg width="24" height="24" viewBox="0 0 24 24" fill="none" xmlns="http://www.w3.org/2000/svg">
<path d="M14.8956 7.28455C14.8956 6.45612 14.2474 5.60892 13.4478 5.39227C12.6482 5.17563 12 5.67157 12 6.5C12 7.32843 12.6482 8.17563 13.4478 8.39227C14.2474 8.60892 14.8956 8.11297 14.8956 7.28455Z" fill="black"/>
<path fill-rule="evenodd" clip-rule="evenodd" d="M12 2C8.68629 2 6 4.68629 6 8C6 10.9077 8.06835 13.3323 10.814 13.8828C11.0613 13.9324 11.25 14.1429 11.25 14.3951L11.25 21C11.25 21.4142 11.5858 21.75 12 21.75C12.4142 21.75 12.75 21.4142 12.75 21L12.75 14.3951C12.75 14.1429 12.9387 13.9324 13.186 13.8828C15.9317 13.3323 18 10.9077 18 8C18 4.68629 15.3137 2 12 2ZM7.5 8C7.5 10.4853 9.51472 12.5 12 12.5C14.4853 12.5 16.5 10.4853 16.5 8C16.5 5.51472 14.4853 3.5 12 3.5C9.51472 3.5 7.5 5.51472 7.5 8Z" fill="black"/>
</svg>
